X:1
T:Preludio No. 3
T:Preludio No. 3
T:En sol mayor
T:Francisco Tárrega (1852 - 1909)
C:Francisco Tárrega
%%score ( 1 2 )
L:1/8
Q:1/4=80
M:3/8
K:G
V:1 treble-8 nm="Classical Guitar" snm="Guit."
V:2 treble-8 
V:1
"^Allegretto"!p! !-(!b |!-)!{/d'} d'bg | e!-(!{/g}!-)!c'a | fef | [Bdg]3 |"^VII" [gb]2 [gb] | %6
 (d'c')g | (ba)"^III"d | [Bd]2 !-(!b |!-)!{/d'} (d'b)[=fg] |"^VIII" [ce]c'a | (^fe)f | %12
"_cresc." gb !-(!d' |!-)!{/=f'} (f'e')!f!"^IX"d' |"^X" (=f'e')"^VIII"^c' | d'e'f | [Bg]2!p! !-(!b | %17
!-)!{/d'} (!>!d'c')b |"^V" (ba) !-(!a |!-)!{/c'} (c'a)f |"^III" (ag) [db] | [db][^db][eb] | %22
"^VII" [fd'][ec']"^X"[af'] | [ge'][fd'][cf] | [Bg]2 !-(!b |!-)!{/d'} (!>!d'c')b | %26
"^V" ((ba)) !-(!a |!-)!{/c'} (c'a)f |"^III" ((ag)) [db] |"_cresc." [db][^db][eb] | %30
"^VII" [fd'][ec']"^X"[af'] | [ge'][fd'][cf] |!f! [Bg]2 z |] %33
V:2
 x | [GB]2 z | [Gc] z2 | [Dc]2 [Dc] | GBd | (=fe)d | [eg]2 [Ae] | [Dc^f]2 [Fc] | GG, z | [GB]2 B | %10
 C2 [A,ce] | [DAc]2 [DAc] | [GBd]2 z | [^GB]2 [E,B^g] | [A,ca]2 [^Ag] | [Bg][cg][Dc] | GG, z | %17
 [=f^g]2 [df] | [ce]2 z | [_ef]2 [ce] | [Bd]2 z | G2 ^G | A2 c | D2 D | GG, z | [=f^g]2 [df] | %26
 [ce]2 z | [_ef]2 [ce] | [Bd]2 z | G2 ^G | A2 c | D2 D | GG, z |] %33

